!!!COM: Music21
!!!OTL: Pasodoble do Quinteto dos de Seixón
!!!OMV: pezas_pasodobles_pasodoble-do-quinteto-dos-de-seixon_pasodoble-do-quinteto-dos-de-seixon-partitura.musicxml
**kern
*I"Bagpipes
*I'Bag
*clefG^2
*k[]
*M2/4
=1
!LO:TX:a:t=Allegro
*MM130
!LO:TX:a:t=[quarter]=130
4r
4gg
=||
[2ccc
=
4ccc]
4bb
=
[2ccc
=
4.ccc]
8gg
=
4bb
8aaL
[8ggJ
=
4gg]
8ffL
16eeL
16ffJJ
=
[2gg
=
4gg]
4gg
=
[2ccc
=
4ccc]
4bb
=
[2ccc
=
4.ccc]
8gg
!!linebreak:original
=
4bb
8aaL
[8ggJ
!!linebreak:original
=
4gg]
8ffL
16eeL
16ddJJ
=
[2cc
=
4cc]
4gg
=||
[2ccc
=
4ccc]
4bb
=
[2ccc
=
4.ccc]
8gg
=
4bb
8aaL
[8ggJ
=
4gg]
8ffL
16eeL
16ffJJ
=
[2gg
=
4gg]
4gg
=
[2ccc
=
4ccc]
4bb
=
[2ccc
!!linebreak:original
=
4.ccc]
8gg
=
4bb
8aaL
[8ggJ
!!linebreak:original
=
4gg]
8ffL
16eeL
16ddJJ
=
2cc
=||
8.aaL
16ggJk
8aaL
8ggJ
=
8ffL
[8ffJ
8ffL]
8aaJ
=
16ggLL
16aa
16gg
16ffJJ
8ggL
8ffJ
=
2ee
=
8.ffL
16eeJk
8ffL
8eeJ
=
8ddL
[8ddJ
8ddL]
8ddJ
!!linebreak:original
=
8ggL
16ffL
16eeJJ
8ffL
16eeL
16ddJJ
=
2cc
=||
8.aaL
16ggJk
8aaL
8ggJ
=
8ffL
[8ffJ
8ffL]
8aaJ
=
16ggLL
16aa
16gg
16ffJJ
8ggL
8ffJ
=
2ee
=
8.ffL
16eeJk
8ffL
8eeJ
=
8ddL
[8ddJ
8ddL]
8ddJ
=
8ggL
16ffL
16eeJJ
8ffL
16eeL
16ddJJ
!!linebreak:original
=
4cc
4gg
=||
4cc
4gg
=
8ccc
8r
4r
==
*-
